X:229
T:Acrobatic Reel
S:Fiddle-L, Paul Tyler,6/97
M:C|
L:1/8
N:An octogenarian from Hastings, Michigan, Les learned the tune from notation
N:sent to him by a fiddler/collector from Midland, Michigan.
R:Breakdown
A:Michigan
K:A
e2|a2ed cBAc|BAGB A2A2|EFGA BcdB|cecA B2e2|
a2ed cBAc|BAGB A2A2|EFGA Bcde|cABc A2:|
f2|:ecAc ecfc|ecAc e2f2|ecAc ecfc|dcBc d2ef|
ecAc ecfc|ecAc e2f2|agfe dcBA|1Bcde f2ef:|2BAGB A2||
